apps/forge/docs/logo/logo.svg

<?xml version="1.0" encoding="UTF-8" standalone="no"?>
<svg
   version="1.1"
   width="2549.957"
   height="855.64301"
   style="clip-rule:evenodd;fill-rule:evenodd;image-rendering:optimizeQuality;shape-rendering:geometricPrecision;text-rendering:geometricPrecision"
   id="svg8"
   sodipodi:docname="logo.svg"
   inkscape:version="1.4 (e7c3feb100, 2024-10-09)"
   xmlns:inkscape="http://www.inkscape.org/namespaces/inkscape"
   xmlns:sodipodi="http://sodipodi.sourceforge.net/DTD/sodipodi-0.dtd"
   xmlns="http://www.w3.org/2000/svg"
   xmlns:svg="http://www.w3.org/2000/svg">
  <defs
     id="defs8" />
  <sodipodi:namedview
     id="namedview8"
     pagecolor="#ffffff"
     bordercolor="#000000"
     borderopacity="0.25"
     inkscape:showpageshadow="2"
     inkscape:pageopacity="0.0"
     inkscape:pagecheckerboard="0"
     inkscape:deskcolor="#d1d1d1"
     inkscape:zoom="0.30507347"
     inkscape:cx="1140.7088"
     inkscape:cy="298.2888"
     inkscape:window-width="1908"
     inkscape:window-height="1031"
     inkscape:window-x="0"
     inkscape:window-y="0"
     inkscape:window-maximized="1"
     inkscape:current-layer="g1" />
  <g
     id="g1">
    <path
       style="opacity:0.997"
       fill="#dda483"
       d="m 619.12486,341.87322 c 0.789,-0.283 1.456,-0.783 2,-1.5 -111.501,-0.833 -222.834,-0.666 -334,0.5 0.167,171.334 0,342.667 -0.5,514 -1.868,1.172 -3.702,1.005 -5.5,-0.5 -93.171,-69.665 -186.505001,-139.165 -280.0000006,-208.5 0.603,-2.179 1.27,-4.346 2,-6.5 -1.143,-118.83 -1.143,-246.497 0,-383 -0.331,-48.106 -1.331,-95.94 -3.00000002,-143.5 -0.17,-1.322 0.163,-2.489 1.00000002,-3.5 C 87.207859,53.821215 180.87486,18.821215 282.12486,4.373215 c 143.579,-15.9471 277.913,11.7196 403,83 11.49,7.334 22.823,14.834005 34,22.500005 1.165,186.294 1.332,372.627 0.5,559 -96.341,61.911 -192.841,123.411 -289.5,184.5 -2,0.667 -4,0.667 -6,0 -1.166,-128.097 -1.332,-256.264 -0.5,-384.5 64.835,-42.991 130.002,-85.324 195.5,-127 z"
       id="path1" />
  </g>
  <g
     id="g2"
     transform="translate(-176.37514,-54.626785)">
    <path
       style="opacity:0.169"
       fill="#de9c7b"
       d="m 176.5,167.5 c 1.669,47.56 2.669,95.394 3,143.5 -1.143,136.503 -1.143,264.17 0,383 -0.73,2.154 -1.397,4.321 -2,6.5 -1,-177.499 -1.333,-355.166 -1,-533 z"
       id="path2" />
  </g>
  <g
     id="g3"
     transform="translate(-176.37514,-54.626785)">
    <path
       style="opacity:0.988"
       fill="#dda483"
       d="m 1097.5,245.5 c 106,-0.333 212,0 318,1 1.32,26.321 1.32,52.654 0,79 -76,0 -152,0 -228,0 0,35.667 0,71.333 0,107 62.33,-0.167 124.67,0 187,0.5 0.66,12.427 1,24.927 1,37.5 0,12.573 -0.34,25.073 -1,37.5 -62.33,0.5 -124.67,0.667 -187,0.5 0.17,62.334 0,124.668 -0.5,187 -14.93,0.663 -29.93,0.996 -45,1 -15.22,-0.008 -30.22,-0.675 -45,-2 -0.83,-149.736 -0.66,-299.403 0.5,-449 z"
       id="path3" />
  </g>
  <g
     id="g4"
     transform="translate(-176.37514,-54.626785)">
    <path
       style="opacity:0.987"
       fill="#dea483"
       d="m 2154.5,351.5 c 44.43,-4.774 81.59,9.226 111.5,42 6.12,7.609 11.62,15.609 16.5,24 1.55,0.952 3.21,1.285 5,1 -3.22,-9.842 -6.72,-19.509 -10.5,-29 -0.82,-10.91 -0.65,-21.743 0.5,-32.5 28.57,-0.828 57.07,-0.662 85.5,0.5 0.67,105 0.67,210 0,315 -1.09,34.401 -11.09,65.734 -30,94 -28.57,34.4 -65.07,53.233 -109.5,56.5 -23.02,0.887 -46.02,0.553 -69,-1 -34.78,-4.505 -64.61,-19.338 -89.5,-44.5 -20.01,-22.059 -30.18,-47.893 -30.5,-77.5 27.33,-0.667 54.67,-0.667 82,0 2.82,9.088 6.32,17.921 10.5,26.5 5.68,8.343 13.18,14.51 22.5,18.5 18.63,6.94 37.96,9.273 58,7 35.14,-3.472 56.97,-22.305 65.5,-56.5 2.72,-15.87 4.05,-31.87 4,-48 3.2,-8.759 6.7,-17.426 10.5,-26 -1.01,-2.668 -2.68,-3.334 -5,-2 -27,48.996 -68.33,71.496 -124,67.5 -42.68,-4.265 -76.85,-23.765 -102.5,-58.5 -22.47,-32.918 -33.31,-69.251 -32.5,-109 -1.43,-56.269 18.9,-102.769 61,-139.5 20.9,-15.87 44.23,-25.37 70,-28.5 z m 20,79 c 40.99,-4.339 71.66,11.161 92,46.5 13.45,28.439 13.28,56.939 -0.5,85.5 -19.99,34.241 -49.83,49.074 -89.5,44.5 -27.03,-4.123 -46.53,-18.623 -58.5,-43.5 -10.13,-26.509 -11.13,-53.509 -3,-81 10.38,-28.211 30.21,-45.545 59.5,-52 z"
       id="path4" />
  </g>
  <g
     id="g5"
     transform="translate(-176.37514,-54.626785)">
    <path
       style="opacity:0.988"
       fill="#dda483"
       d="m 1580.5,351.5 c 43.27,-4.09 82.94,5.243 119,28 36.16,26.658 58.66,61.991 67.5,106 8.97,50.422 1.31,97.755 -23,142 -28.23,42.188 -67.4,66.688 -117.5,73.5 -23.81,1.438 -47.47,0.438 -71,-3 -44.12,-11.463 -77.95,-36.629 -101.5,-75.5 -28.74,-58.145 -31.07,-117.479 -7,-178 27.72,-55.268 72.22,-86.268 133.5,-93 z m 5,79 c 45.17,-4.271 75.83,14.563 92,56.5 3.92,12.99 6.25,26.324 7,40 -0.2,32.254 -12.2,59.254 -36,81 -20.15,13.979 -42.49,18.646 -67,14 -29.61,-8.943 -49.44,-28.11 -59.5,-57.5 -9.8,-33.104 -6.8,-64.77 9,-95 12.63,-20.732 30.8,-33.732 54.5,-39 z"
       id="path5" />
  </g>
  <g
     id="g6"
     transform="translate(-176.37514,-54.626785)">
    <path
       style="opacity:0.98"
       fill="#dea483"
       d="m 1985.5,351.5 c 8.67,0 17.33,0 26,0 0.17,29.002 0,58.002 -0.5,87 -15.76,-0.247 -31.6,0.253 -47.5,1.5 -20.31,2.238 -37.47,10.738 -51.5,25.5 -10.77,16.733 -17.11,35.066 -19,55 -0.33,58.333 -0.67,116.667 -1,175 -28.43,0.995 -56.93,1.329 -85.5,1 0,-113.333 0,-226.667 0,-340 28.34,-0.167 56.67,0 85,0.5 1.15,8.088 1.31,16.254 0.5,24.5 -1.04,13.74 -4.7,26.74 -11,39 -0.67,2 -0.67,4 0,6 0.56,0.522 1.23,0.855 2,1 2.68,-1.688 4.68,-4.022 6,-7 7.2,-19.199 18.37,-35.699 33.5,-49.5 18.79,-12.226 39.45,-18.226 62,-18 0.56,-0.383 0.89,-0.883 1,-1.5 z"
       id="path6" />
  </g>
  <g
     id="g7"
     transform="translate(-176.37514,-54.626785)">
    <path
       style="opacity:0.989"
       fill="#dda483"
       d="m 2545.5,351.5 c 41.05,-3.988 79.05,4.512 114,25.5 33.78,23.78 54.61,55.947 62.5,96.5 3.69,21.187 5.02,42.521 4,64 -1.13,3.733 -1.96,7.566 -2.5,11.5 -80.67,0.167 -161.34,0.667 -242,1.5 11.07,53.878 44.07,78.711 99,74.5 15.76,-2.715 28.92,-10.215 39.5,-22.5 5.35,-8.547 9.85,-17.547 13.5,-27 28.9,-1.328 57.73,-1.328 86.5,0 -7.66,53.349 -35.83,91.849 -84.5,115.5 -13.33,4.504 -27,7.837 -41,10 -35.3,4.106 -69.3,0.106 -102,-12 -49.97,-23.623 -80.47,-62.456 -91.5,-116.5 -7.3,-37.783 -5.64,-75.117 5,-112 19.53,-56.532 58.36,-91.698 116.5,-105.5 8.07,-0.411 15.73,-1.577 23,-3.5 z m 17,71 c 45.9,-0.757 71.57,21.576 77,67 -51.33,0 -102.67,0 -154,0 8.66,-42.005 34.33,-64.338 77,-67 z"
       id="path7" />
  </g>
  <g
     id="g8"
     transform="translate(-176.37514,-54.626785)">
    <path
       style="opacity:0.00799997"
       fill="#ff8080"
       d="m 463.5,395.5 c 111.166,-1.166 222.499,-1.333 334,-0.5 -0.544,0.717 -1.211,1.217 -2,1.5 -110.499,-0.999 -221.165,-1.333 -332,-1 z"
       id="path8" />
  </g>
</svg>

<?xml version="1.0" encoding="UTF-8"?>
<!DOCTYPE svg PUBLIC "-//W3C//DTD SVG 1.1//EN" "http://www.w3.org/Graphics/SVG/1.1/DTD/svg11.dtd">
<svg xmlns="http://www.w3.org/2000/svg" version="1.1" width="3000px" height="1005px" style="shape-rendering:geometricPrecision; text-rendering:geometricPrecision; image-rendering:optimizeQuality; fill-rule:evenodd; clip-rule:evenodd" xmlns:xlink="http://www.w3.org/1999/xlink">
<g><path style="opacity:0.997" fill="#dda483" d="M 795.5,396.5 C 796.289,396.217 796.956,395.717 797.5,395C 685.999,394.167 574.666,394.334 463.5,395.5C 463.667,566.834 463.5,738.167 463,909.5C 461.132,910.672 459.298,910.505 457.5,909C 364.329,839.335 270.995,769.835 177.5,700.5C 178.103,698.321 178.77,696.154 179.5,694C 178.357,575.17 178.357,447.503 179.5,311C 179.169,262.894 178.169,215.06 176.5,167.5C 176.33,166.178 176.663,165.011 177.5,164C 263.583,108.448 357.25,73.448 458.5,59C 602.079,43.0529 736.413,70.7196 861.5,142C 872.99,149.334 884.323,156.834 895.5,164.5C 896.665,350.794 896.832,537.127 896,723.5C 799.659,785.411 703.159,846.911 606.5,908C 604.5,908.667 602.5,908.667 600.5,908C 599.334,779.903 599.168,651.736 600,523.5C 664.835,480.509 730.002,438.176 795.5,396.5 Z"/></g>
<g><path style="opacity:0.169" fill="#de9c7b" d="M 176.5,167.5 C 178.169,215.06 179.169,262.894 179.5,311C 178.357,447.503 178.357,575.17 179.5,694C 178.77,696.154 178.103,698.321 177.5,700.5C 176.5,523.001 176.167,345.334 176.5,167.5 Z"/></g>
<g><path style="opacity:0.988" fill="#dda483" d="M 1097.5,245.5 C 1203.5,245.167 1309.5,245.5 1415.5,246.5C 1416.82,272.821 1416.82,299.154 1415.5,325.5C 1339.5,325.5 1263.5,325.5 1187.5,325.5C 1187.5,361.167 1187.5,396.833 1187.5,432.5C 1249.83,432.333 1312.17,432.5 1374.5,433C 1375.16,445.427 1375.5,457.927 1375.5,470.5C 1375.5,483.073 1375.16,495.573 1374.5,508C 1312.17,508.5 1249.83,508.667 1187.5,508.5C 1187.67,570.834 1187.5,633.168 1187,695.5C 1172.07,696.163 1157.07,696.496 1142,696.5C 1126.78,696.492 1111.78,695.825 1097,694.5C 1096.17,544.764 1096.34,395.097 1097.5,245.5 Z"/></g>
<g><path style="opacity:0.987" fill="#dea483" d="M 2154.5,351.5 C 2198.93,346.726 2236.09,360.726 2266,393.5C 2272.12,401.109 2277.62,409.109 2282.5,417.5C 2284.05,418.452 2285.71,418.785 2287.5,418.5C 2284.28,408.658 2280.78,398.991 2277,389.5C 2276.18,378.59 2276.35,367.757 2277.5,357C 2306.07,356.172 2334.57,356.338 2363,357.5C 2363.67,462.5 2363.67,567.5 2363,672.5C 2361.91,706.901 2351.91,738.234 2333,766.5C 2304.43,800.9 2267.93,819.733 2223.5,823C 2200.48,823.887 2177.48,823.553 2154.5,822C 2119.72,817.495 2089.89,802.662 2065,777.5C 2044.99,755.441 2034.82,729.607 2034.5,700C 2061.83,699.333 2089.17,699.333 2116.5,700C 2119.32,709.088 2122.82,717.921 2127,726.5C 2132.68,734.843 2140.18,741.01 2149.5,745C 2168.13,751.94 2187.46,754.273 2207.5,752C 2242.64,748.528 2264.47,729.695 2273,695.5C 2275.72,679.63 2277.05,663.63 2277,647.5C 2280.2,638.741 2283.7,630.074 2287.5,621.5C 2286.49,618.832 2284.82,618.166 2282.5,619.5C 2255.5,668.496 2214.17,690.996 2158.5,687C 2115.82,682.735 2081.65,663.235 2056,628.5C 2033.53,595.582 2022.69,559.249 2023.5,519.5C 2022.07,463.231 2042.4,416.731 2084.5,380C 2105.4,364.13 2128.73,354.63 2154.5,351.5 Z M 2174.5,430.5 C 2215.49,426.161 2246.16,441.661 2266.5,477C 2279.95,505.439 2279.78,533.939 2266,562.5C 2246.01,596.741 2216.17,611.574 2176.5,607C 2149.47,602.877 2129.97,588.377 2118,563.5C 2107.87,536.991 2106.87,509.991 2115,482.5C 2125.38,454.289 2145.21,436.955 2174.5,430.5 Z"/></g>
<g><path style="opacity:0.988" fill="#dda483" d="M 1580.5,351.5 C 1623.77,347.41 1663.44,356.743 1699.5,379.5C 1735.66,406.158 1758.16,441.491 1767,485.5C 1775.97,535.922 1768.31,583.255 1744,627.5C 1715.77,669.688 1676.6,694.188 1626.5,701C 1602.69,702.438 1579.03,701.438 1555.5,698C 1511.38,686.537 1477.55,661.371 1454,622.5C 1425.26,564.355 1422.93,505.021 1447,444.5C 1474.72,389.232 1519.22,358.232 1580.5,351.5 Z M 1585.5,430.5 C 1630.67,426.229 1661.33,445.063 1677.5,487C 1681.42,499.99 1683.75,513.324 1684.5,527C 1684.3,559.254 1672.3,586.254 1648.5,608C 1628.35,621.979 1606.01,626.646 1581.5,622C 1551.89,613.057 1532.06,593.89 1522,564.5C 1512.2,531.396 1515.2,499.73 1531,469.5C 1543.63,448.768 1561.8,435.768 1585.5,430.5 Z"/></g>
<g><path style="opacity:0.98" fill="#dea483" d="M 1985.5,351.5 C 1994.17,351.5 2002.83,351.5 2011.5,351.5C 2011.67,380.502 2011.5,409.502 2011,438.5C 1995.24,438.253 1979.4,438.753 1963.5,440C 1943.19,442.238 1926.03,450.738 1912,465.5C 1901.23,482.233 1894.89,500.566 1893,520.5C 1892.67,578.833 1892.33,637.167 1892,695.5C 1863.57,696.495 1835.07,696.829 1806.5,696.5C 1806.5,583.167 1806.5,469.833 1806.5,356.5C 1834.84,356.333 1863.17,356.5 1891.5,357C 1892.65,365.088 1892.81,373.254 1892,381.5C 1890.96,395.24 1887.3,408.24 1881,420.5C 1880.33,422.5 1880.33,424.5 1881,426.5C 1881.56,427.022 1882.23,427.355 1883,427.5C 1885.68,425.812 1887.68,423.478 1889,420.5C 1896.2,401.301 1907.37,384.801 1922.5,371C 1941.29,358.774 1961.95,352.774 1984.5,353C 1985.06,352.617 1985.39,352.117 1985.5,351.5 Z"/></g>
<g><path style="opacity:0.989" fill="#dda483" d="M 2545.5,351.5 C 2586.55,347.512 2624.55,356.012 2659.5,377C 2693.28,400.78 2714.11,432.947 2722,473.5C 2725.69,494.687 2727.02,516.021 2726,537.5C 2724.87,541.233 2724.04,545.066 2723.5,549C 2642.83,549.167 2562.16,549.667 2481.5,550.5C 2492.57,604.378 2525.57,629.211 2580.5,625C 2596.26,622.285 2609.42,614.785 2620,602.5C 2625.35,593.953 2629.85,584.953 2633.5,575.5C 2662.4,574.172 2691.23,574.172 2720,575.5C 2712.34,628.849 2684.17,667.349 2635.5,691C 2622.17,695.504 2608.5,698.837 2594.5,701C 2559.2,705.106 2525.2,701.106 2492.5,689C 2442.53,665.377 2412.03,626.544 2401,572.5C 2393.7,534.717 2395.36,497.383 2406,460.5C 2425.53,403.968 2464.36,368.802 2522.5,355C 2530.57,354.589 2538.23,353.423 2545.5,351.5 Z M 2562.5,422.5 C 2608.4,421.743 2634.07,444.076 2639.5,489.5C 2588.17,489.5 2536.83,489.5 2485.5,489.5C 2494.16,447.495 2519.83,425.162 2562.5,422.5 Z"/></g>
<g><path style="opacity:0.008" fill="#ff8080" d="M 463.5,395.5 C 574.666,394.334 685.999,394.167 797.5,395C 796.956,395.717 796.289,396.217 795.5,396.5C 685.001,395.501 574.335,395.167 463.5,395.5 Z"/></g>
</svg>
